public/images/easy-to-start.svg

<svg width="104" height="104" viewBox="0 0 104 104" fill="none" xmlns="http://www.w3.org/2000/svg">
<path d="M60.706 1.61318C61.4259 1.06858 62.4601 1.27652 62.9136 2.05706L67.4794 9.91551C67.8251 10.5106 68.5306 10.795 69.1924 10.6061L77.932 8.11184C78.8001 7.86409 79.6893 8.43156 79.8302 9.32322L81.2489 18.3004C81.3563 18.9801 81.9114 19.5002 82.5968 19.5632L91.6472 20.3944C92.5462 20.477 93.1703 21.3274 92.9796 22.2097L91.0596 31.0931C90.9142 31.7658 91.244 32.4513 91.8603 32.7576L99.9993 36.8021C100.808 37.2038 101.083 38.2222 100.586 38.9761L95.5865 46.5661C95.2079 47.1408 95.2678 47.8992 95.7319 48.4074L101.86 55.1189C102.469 55.7855 102.357 56.8345 101.622 57.358L94.2183 62.6295C93.6577 63.0286 93.4395 63.7574 93.6887 64.3989L96.9787 72.8711C97.3055 73.7126 96.8225 74.6504 95.9477 74.8729L87.1397 77.1139C86.4727 77.2836 86.0061 77.8843 86.0066 78.5725L86.014 87.6611C86.0148 88.5638 85.2256 89.2638 84.3294 89.1553L75.3067 88.0631C74.6235 87.9804 73.9713 88.372 73.7232 89.014L70.447 97.4915C70.1215 98.3335 69.1328 98.7011 68.3364 98.2762L60.3175 93.9984C59.7103 93.6745 58.9607 93.8041 58.4975 94.313L52.38 101.035C51.7724 101.702 50.7176 101.688 50.1284 101.004L44.1964 94.1182C43.7472 93.5968 43.0014 93.4468 42.3856 93.7541L34.2531 97.8118C33.4454 98.2148 32.467 97.8204 32.1647 96.9698L29.1206 88.4062C28.8901 87.7578 28.2488 87.3485 27.5636 87.4126L18.5145 88.2585C17.6157 88.3425 16.8459 87.6213 16.8713 86.719L17.1263 77.634C17.1456 76.9461 16.6955 76.3328 16.0334 76.145L7.28975 73.6649C6.42129 73.4185 5.96402 72.468 6.31361 71.6357L9.83327 63.2563C10.0998 62.6218 9.90159 61.8874 9.35206 61.4731L2.09479 56.0019C1.37396 55.4585 1.29095 54.4069 1.91758 53.7571L8.22656 47.215C8.70428 46.7196 8.78479 45.9632 8.42202 45.3784L3.63124 37.655C3.15539 36.8879 3.45786 35.8773 4.27691 35.4978L12.5231 31.6765C13.1475 31.3872 13.4959 30.7109 13.3689 30.0345L11.6916 21.1021C11.525 20.2149 12.1721 19.3818 13.0729 19.3238L22.1427 18.7394C22.8295 18.6952 23.3986 18.1904 23.5245 17.5138L25.1873 8.57866C25.3524 7.69118 26.2567 7.14814 27.1177 7.41944L35.7861 10.1509C36.4425 10.3578 37.1555 10.0927 37.5173 9.50725L42.2956 1.77612C42.7702 1.00823 43.8096 0.828545 44.5144 1.39255L51.6107 7.07098C52.1481 7.50096 52.9087 7.51133 53.4576 7.09615L60.706 1.61318Z" fill="#A9FAD6"/>
<g clip-path="url(#clip0)">
<path d="M39.8227 50.6558C39.3759 50.1083 39.1691 49.4196 39.2406 48.7165C39.3121 48.0135 39.6533 47.3805 40.2012 46.9342C40.4803 46.7068 40.7927 46.5463 41.1187 46.4503L40.1488 45.2641C39.7008 44.7167 39.4932 44.0277 39.5643 43.324C39.6354 42.6202 39.9766 41.9866 40.525 41.5399L40.5559 41.5148C40.9791 41.17 41.4782 40.9785 41.9854 40.9331C41.9716 40.7701 41.9724 40.6047 41.9892 40.4384C42.0603 39.7347 42.4015 39.1012 42.9499 38.6546L42.9877 38.6238C43.5353 38.1778 44.2237 37.9717 44.9262 38.0435C45.4005 38.092 45.8426 38.2637 46.2172 38.5383C46.3829 38.2002 46.6207 37.899 46.921 37.6544L46.9459 37.634C48.0761 36.7136 49.7446 36.884 50.6653 38.0143L56.9749 45.761L56.4705 42.0667C56.2712 40.607 57.198 39.2341 58.6263 38.873C59.4301 38.6699 60.2835 38.8221 60.9676 39.2905C61.6516 39.7588 62.1021 40.4994 62.2035 41.3223L62.2696 41.859C62.5858 44.4256 63.2746 47.0428 64.3169 49.6375C65.0979 51.5818 65.2466 53.7775 64.7356 55.8201C64.2069 57.9335 63.0322 59.7798 61.3386 61.1592C59.2597 62.8526 56.6466 63.6347 53.9795 63.3619L53.9727 63.3613C51.3034 63.0866 48.9015 61.7882 47.2095 59.7053L45.4036 57.4822L39.8227 50.6558ZM48.4705 58.6809C49.8886 60.4267 51.9018 61.5149 54.139 61.7451L54.1447 61.7457C56.38 61.9742 58.5702 61.3187 60.3126 59.8995C61.7322 58.7434 62.7166 57.1963 63.1596 55.4258C63.5881 53.7128 63.4637 51.8722 62.8093 50.2431C61.7146 47.5179 60.9904 44.7639 60.6571 42.0576L60.591 41.5209C60.546 41.1552 60.3538 40.8392 60.0497 40.631C59.7457 40.4229 59.3814 40.358 59.0243 40.4482C58.3988 40.6063 57.9928 41.2076 58.0801 41.8469L58.9758 48.4057C59.0922 49.0843 58.1671 49.7323 57.5411 49.0286L49.4056 39.0403C49.0507 38.6045 48.4075 38.5389 47.9726 38.8931L47.9476 38.9134C47.7366 39.0854 47.6051 39.3291 47.5774 39.5999C47.5498 39.8708 47.6292 40.1361 47.8011 40.3472C49.1253 41.9729 51.5005 44.889 52.8003 46.4849C53.0836 46.8327 53.0313 47.3444 52.6835 47.6277C52.3356 47.9111 51.8239 47.8588 51.5407 47.5109C50.7375 46.5249 46.1235 40.8601 45.4473 40.03C45.2755 39.8189 45.0317 39.6875 44.7609 39.6598C44.49 39.6321 44.2247 39.7115 44.0136 39.8835L43.9758 39.9143C43.7644 40.0865 43.6329 40.3307 43.6054 40.6019C43.578 40.8731 43.658 41.1387 43.8308 41.3499C45.6507 43.5752 48.1398 46.6177 49.9413 48.8218C50.2253 49.1691 50.174 49.6808 49.8267 49.9649C49.6526 50.1072 49.4372 50.1654 49.2299 50.1442C49.0236 50.1231 48.8253 50.0235 48.6837 49.8503C47.4726 48.3694 44.1731 44.3344 43.014 42.9191C42.6589 42.4854 42.0165 42.4205 41.5818 42.7744L41.551 42.7995C41.3396 42.9717 41.2081 43.216 41.1807 43.4872C41.1533 43.7585 41.2333 44.0241 41.4062 44.2354C43.1715 46.394 45.9674 49.8124 47.717 51.9537C48.001 52.3011 47.9497 52.8129 47.6024 53.0968C47.4283 53.2391 47.2129 53.2973 47.0056 53.2761C46.7993 53.255 46.6009 53.1553 46.4594 52.9822L43.1312 48.9117L42.6576 48.3363C42.3023 47.9047 41.6606 47.8409 41.2272 48.1938C41.016 48.3659 40.8845 48.6098 40.8569 48.8809C40.8293 49.1518 40.9091 49.4174 41.081 49.6279L46.6631 56.4558L48.4705 58.6809Z" fill="#42CCAD"/>
<path d="M40.227 56.3658C40.0933 55.9376 40.3321 55.482 40.7603 55.3484C41.1886 55.2146 41.6441 55.4534 41.7778 55.8817C41.9842 56.5426 42.3128 57.1528 42.7545 57.695C43.2941 58.3575 43.9593 58.8701 44.7318 59.2186C45.1407 59.4031 45.3227 59.8841 45.1382 60.2931C44.9907 60.6201 44.6535 60.802 44.3152 60.7674C44.2304 60.7587 44.1456 60.7365 44.0636 60.6996C43.0593 60.2464 42.195 59.5808 41.4947 58.721C40.9219 58.0176 40.4953 57.2252 40.227 56.3658Z" fill="#42CCAD"/>
<path d="M38.0462 56.591C38.4744 56.4571 38.9301 56.6956 39.064 57.1238C39.3515 58.0432 39.8088 58.8918 40.4231 59.646C41.1376 60.5232 42.0129 61.2134 43.0248 61.6973C43.4295 61.8909 43.6007 62.3759 43.4071 62.7807C43.2551 63.0986 42.9232 63.2723 42.5916 63.2384C42.5011 63.2292 42.4106 63.2045 42.3238 63.1629C41.0939 62.5747 40.0306 61.7366 39.1635 60.672C38.4181 59.7569 37.8629 58.7263 37.5134 57.6088C37.3795 57.1806 37.618 56.725 38.0462 56.591Z" fill="#42CCAD"/>
</g>
<path d="M29.8917 37.7754L22.4795 32.2584L26.1909 27.272L27.5611 28.2918L24.9781 31.7621L26.483 32.8822L28.3805 30.3329L29.672 31.2941L27.7745 33.8435L29.6501 35.2394L32.3333 31.6344L33.7034 32.6542L29.8917 37.7754Z" fill="#42CCAD"/>
<path d="M39.7948 28.3083L38.6929 27.5986L35.5568 29.7089L35.7992 30.997L34.1151 32.1304L32.2891 22.0193L32.8118 21.6676L41.479 27.175L39.7948 28.3083ZM37.2794 26.6767L34.5143 24.7743L35.2351 28.0523L37.2794 26.6767Z" fill="#42CCAD"/>
<path d="M41.1166 25.3715L42.112 24.0812C42.9796 24.7719 43.8274 25.0033 44.6553 24.7756C45.0512 24.6667 45.3382 24.4958 45.5161 24.2629C45.6916 24.0211 45.7373 23.7471 45.6531 23.4412C45.5838 23.1892 45.4541 23.0168 45.264 22.9239C45.0714 22.822 44.7216 22.7294 44.2147 22.6462L43.1375 22.4779C41.5219 22.235 40.5668 21.5781 40.2723 20.5072C40.0643 19.7513 40.1762 19.0671 40.6079 18.4547C41.0371 17.8333 41.6792 17.405 42.5341 17.1698C43.2 16.9866 43.8271 16.9787 44.4152 17.1461C45.0008 17.3044 45.5094 17.6049 45.941 18.0477L44.9627 19.3477C44.3156 18.79 43.6546 18.604 42.9797 18.7896C42.6557 18.8787 42.4113 19.0283 42.2464 19.2382C42.0815 19.4481 42.0362 19.688 42.1104 19.958C42.1723 20.183 42.2951 20.3477 42.4786 20.4521C42.6688 20.545 42.9866 20.6269 43.432 20.698L44.5669 20.865C45.4259 20.9965 46.0866 21.2165 46.549 21.525C47.0088 21.8244 47.3205 22.2711 47.4838 22.865C47.7042 23.6659 47.5899 24.3943 47.1411 25.0501C46.6898 25.697 46.0098 26.1454 45.1008 26.3954C44.3539 26.6009 43.6307 26.6111 42.9312 26.426C42.2408 26.2384 41.6359 25.8869 41.1166 25.3715Z" fill="#42CCAD"/>
<path d="M59.0148 16.2305L55.539 21.6508L55.3425 25.2855L53.4553 25.1834L53.651 21.5627L50.7668 15.7845L52.8638 15.8979L54.7067 19.671L56.9318 16.1179L59.0148 16.2305Z" fill="#42CCAD"/>
<path d="M65.3584 28.4981L69.2844 22.0702L66.7634 20.5305L67.6537 19.0728L74.3205 23.1447L73.4303 24.6024L70.8973 23.0553L66.9714 29.4832L65.3584 28.4981Z" fill="#42CCAD"/>
<path d="M74.036 28.8396C75.0568 28.0087 76.2415 27.6788 77.5903 27.8498C78.9449 28.028 80.0251 28.6494 80.8309 29.7137C81.6807 30.7433 82.0361 31.9376 81.8971 33.2968C81.7639 34.6633 81.1754 35.7474 80.1315 36.5489C79.1108 37.3798 77.9202 37.7024 76.5599 37.5168C75.2053 37.3385 74.1251 36.7172 73.3192 35.6529C72.4695 34.6233 72.1141 33.4289 72.2531 32.0697C72.3978 30.7178 72.9921 29.6411 74.036 28.8396ZM78.9246 35.0224C79.6128 34.4783 80.0036 33.8064 80.0971 33.0067C80.2037 32.2085 79.9936 31.4763 79.4669 30.81C78.9343 30.1365 78.2711 29.7566 77.4771 29.6704C76.6832 29.5843 75.9385 29.8161 75.243 30.3661C74.5474 30.916 74.15 31.5872 74.0508 32.3795C73.9515 33.1719 74.1681 33.9049 74.7007 34.5785C75.2274 35.2447 75.8878 35.6209 76.6817 35.7071C77.4814 35.8006 78.2291 35.5724 78.9246 35.0224Z" fill="#42CCAD"/>
<path d="M18.7865 53.4397L20.0415 54.5966C19.2414 55.4386 18.9222 56.3019 19.084 57.1866C19.1613 57.6098 19.3134 57.9249 19.54 58.1319C19.7763 58.3371 20.0579 58.4099 20.3849 58.3501C20.6542 58.3009 20.846 58.1813 20.9603 57.9915C21.0843 57.7998 21.2129 57.4434 21.3462 56.9221L21.6206 55.8136C22.0221 54.1501 22.795 53.2137 23.9394 53.0045C24.7472 52.8568 25.4508 53.0363 26.0502 53.5428C26.6593 54.0476 27.0474 54.7568 27.2144 55.6704C27.3445 56.382 27.2953 57.037 27.0668 57.6353C26.8479 58.2319 26.4877 58.735 25.9862 59.1447L24.7194 58.0049C25.3606 57.3808 25.6152 56.7081 25.4834 55.9869C25.4201 55.6407 25.2865 55.3719 25.0826 55.1806C24.8786 54.9893 24.6324 54.9201 24.3439 54.9728C24.1035 55.0168 23.9204 55.1297 23.7947 55.3117C23.6803 55.5016 23.5657 55.8257 23.4507 56.284L23.1725 57.4529C22.9565 58.3371 22.6664 59.0063 22.3022 59.4604C21.9477 59.9129 21.453 60.1971 20.8183 60.3131C19.9624 60.4696 19.2129 60.2836 18.5697 59.7552C17.9361 59.2251 17.5306 58.4744 17.353 57.5031C17.2071 56.7049 17.2627 55.9494 17.52 55.2365C17.779 54.5333 18.2012 53.9343 18.7865 53.4397Z" fill="#42CCAD"/>
<path d="M20.7258 67.313L27.3739 63.7728L25.9855 61.1655L27.493 60.3627L31.1648 67.258L29.6573 68.0608L28.2622 65.441L21.6141 68.9813L20.7258 67.313Z" fill="#42CCAD"/>
<path d="M29.6508 78.7341L30.1093 77.5062L27.3788 74.8922L26.172 75.4037L24.7056 73.9999L34.1948 70.06L34.6499 70.4957L31.1172 80.1379L29.6508 78.7341ZM30.7086 75.9286L31.9776 72.8215L28.9287 74.2247L30.7086 75.9286Z" fill="#42CCAD"/>
<path d="M42.4202 85.8667L40.4794 84.9941L39.6335 81.0373L38.3694 80.4689L37.0318 83.444L35.308 82.669L39.097 74.2416L42.2636 75.6654C43.1489 76.0634 43.7639 76.6417 44.1084 77.4004C44.4529 78.1591 44.4434 78.9428 44.0798 79.7514C43.8425 80.2792 43.4962 80.6966 43.041 81.0036C42.5981 81.3059 42.0909 81.4667 41.5193 81.486L42.4202 85.8667ZM40.1376 76.5361L39.0526 78.9494L40.4954 79.5982C40.8955 79.778 41.256 79.8071 41.5768 79.6852C41.9062 79.5673 42.1531 79.3252 42.3177 78.9592C42.4784 78.6017 42.4894 78.2587 42.3506 77.9302C42.2202 77.6055 41.9635 77.3571 41.5805 77.1848L40.1376 76.5361Z" fill="#42CCAD"/>
<path d="M47.8995 86.6897L48.6533 79.1955L45.7141 78.8999L45.885 77.2005L53.6578 77.9823L53.4869 79.6817L50.5338 79.3847L49.78 86.8788L47.8995 86.6897Z" fill="#42CCAD"/>
<path d="M68.719 72.6468L70.5834 71.6804L71.6315 81.7339L71.0847 82.0174L66.1303 78.0571L66.4982 84.3948L65.9513 84.6782L58.3404 78.0266L60.2048 77.0601L64.5446 80.9605L64.1049 74.8493L64.6642 74.5594L69.3916 78.4165L68.719 72.6468Z" fill="#42CCAD"/>
<path d="M77.7274 76.454L70.9836 70.1375L72.2757 68.7581L79.0194 75.0746L77.7274 76.454Z" fill="#42CCAD"/>
<path d="M82.9167 69.782L76.3622 66.0711L74.9069 68.6417L73.4206 67.8002L77.2693 61.0021L78.7557 61.8436L77.2934 64.4264L83.8478 68.1373L82.9167 69.782Z" fill="#42CCAD"/>
<path d="M86.6303 62.1825L77.5346 60.5555L77.8674 58.695L81.3541 59.3187L82.0739 55.2946L78.5872 54.6709L78.92 52.8104L88.0156 54.4374L87.6828 56.2979L83.7552 55.5953L83.0354 59.6194L86.963 60.322L86.6303 62.1825Z" fill="#42CCAD"/>
<defs>
<clipPath id="clip0">
<rect width="27.0697" height="27.0697" fill="white" transform="matrix(-0.994815 -0.101699 -0.101699 0.994815 66.5898 38.6758)"/>
</clipPath>
</defs>
</svg>

<svg width="104" height="104" fill="none" xmlns="http://www.w3.org/2000/svg"><path d="M60.706 1.613a1.504 1.504 0 012.208.444l4.565 7.859a1.504 1.504 0 001.713.69l8.74-2.494a1.504 1.504 0 011.898 1.211l1.42 8.977c.107.68.662 1.2 1.348 1.263l9.05.831a1.504 1.504 0 011.333 1.816l-1.92 8.883a1.504 1.504 0 00.8 1.665l8.14 4.044a1.503 1.503 0 01.586 2.174l-5 7.59a1.504 1.504 0 00.146 1.841l6.128 6.712a1.504 1.504 0 01-.238 2.239l-7.404 5.272a1.504 1.504 0 00-.53 1.769l3.29 8.472a1.504 1.504 0 01-1.03 2.002l-8.808 2.24a1.504 1.504 0 00-1.133 1.46l.007 9.088c0 .903-.788 1.603-1.685 1.494l-9.022-1.092a1.504 1.504 0 00-1.584.951l-3.276 8.478a1.504 1.504 0 01-2.11.784l-8.02-4.278a1.504 1.504 0 00-1.82.315l-6.117 6.722a1.504 1.504 0 01-2.252-.031l-5.932-6.886a1.504 1.504 0 00-1.81-.364l-8.133 4.058a1.504 1.504 0 01-2.088-.842l-3.044-8.564a1.504 1.504 0 00-1.557-.993l-9.05.846a1.504 1.504 0 01-1.643-1.54l.255-9.085a1.504 1.504 0 00-1.093-1.489l-8.743-2.48a1.504 1.504 0 01-.976-2.03l3.52-8.379a1.504 1.504 0 00-.482-1.783l-7.257-5.471a1.504 1.504 0 01-.177-2.245l6.309-6.542a1.504 1.504 0 00.195-1.837l-4.79-7.723a1.504 1.504 0 01.645-2.157l8.246-3.821c.625-.29.973-.966.846-1.642l-1.677-8.933a1.504 1.504 0 011.38-1.778l9.07-.585a1.504 1.504 0 001.383-1.225l1.662-8.935a1.504 1.504 0 011.93-1.16l8.67 2.732a1.504 1.504 0 001.73-.644l4.779-7.73a1.504 1.504 0 012.218-.384l7.097 5.678c.537.43 1.298.44 1.847.025l7.248-5.483z" fill="#A9FAD6"/><g clip-path="url(#clip0)" fill="#42CCAD"><path d="M39.823 50.656a2.627 2.627 0 01-.582-1.94 2.627 2.627 0 01.96-1.782 2.64 2.64 0 01.918-.484l-.97-1.186a2.626 2.626 0 01-.585-1.94 2.626 2.626 0 01.961-1.784l.03-.025a2.627 2.627 0 011.43-.582 2.626 2.626 0 01.965-2.279l.038-.03a2.627 2.627 0 011.938-.58c.474.048.917.22 1.291.494.166-.338.404-.639.704-.884l.025-.02a2.647 2.647 0 013.72.38l6.309 7.747-.505-3.694a2.889 2.889 0 014.498-2.776 2.892 2.892 0 011.235 2.031l.067.537c.316 2.567 1.005 5.184 2.047 7.779.78 1.944.93 4.14.419 6.182a9.953 9.953 0 01-3.397 5.34 9.969 9.969 0 01-7.36 2.202h-.006a9.971 9.971 0 01-6.764-3.657l-1.805-2.223-5.581-6.826zm8.648 8.025a8.357 8.357 0 005.668 3.064h.006a8.356 8.356 0 006.168-1.845 8.34 8.34 0 002.847-4.474 8.485 8.485 0 00-.35-5.183c-1.095-2.725-1.82-5.48-2.153-8.185l-.066-.537a1.25 1.25 0 00-.541-.89 1.265 1.265 0 00-1.97 1.216l.896 6.559c.116.678-.809 1.326-1.435.623l-8.135-9.989a1.02 1.02 0 00-1.433-.147l-.025.02a1.013 1.013 0 00-.37.687c-.028.27.051.536.223.747l5 6.138a.812.812 0 01-1.26 1.026l-6.094-7.481a1.012 1.012 0 00-.686-.37 1.012 1.012 0 00-.747.224l-.038.03a1.013 1.013 0 00-.37.688c-.028.271.052.537.225.748l6.11 7.472a.812.812 0 01-1.257 1.028c-1.211-1.48-4.51-5.516-5.67-6.93a1.021 1.021 0 00-1.432-.146l-.031.026a1.012 1.012 0 00-.37.687c-.028.271.052.537.225.748l6.311 7.719a.812.812 0 01-1.258 1.028l-3.328-4.07-.473-.576a1.021 1.021 0 00-1.801.545c-.028.27.052.536.224.747l5.582 6.828 1.808 2.225zm-8.244-2.315a.812.812 0 111.55-.484c.207.66.536 1.27.977 1.813a5.387 5.387 0 001.978 1.524.812.812 0 11-.668 1.48 7 7 0 01-2.57-1.978 7.036 7.036 0 01-1.267-2.355zm-2.181.225a.812.812 0 011.018.533c.288.92.745 1.768 1.36 2.522a7.514 7.514 0 002.6 2.051.812.812 0 01-.7 1.466 9.127 9.127 0 01-3.16-2.491 9.161 9.161 0 01-1.65-3.063.812.812 0 01.532-1.018z"/></g><path d="M29.892 37.775l-7.412-5.517 3.71-4.986 1.371 1.02-2.583 3.47 1.505 1.12 1.898-2.55 1.291.962-1.898 2.55 1.876 1.395 2.683-3.605 1.37 1.02-3.811 5.121zm9.903-9.467l-1.102-.71-3.136 2.11.242 1.289-1.684 1.133-1.826-10.11.523-.352 8.667 5.507-1.684 1.133zm-2.516-1.631l-2.765-1.903.721 3.278 2.044-1.375zm3.838-1.305l.995-1.29c.868.69 1.715.921 2.543.694.396-.11.683-.28.861-.513a.917.917 0 00.137-.822c-.07-.252-.199-.424-.389-.517-.193-.102-.542-.195-1.05-.278l-1.076-.168c-1.616-.243-2.571-.9-2.866-1.97-.208-.757-.096-1.44.336-2.053.43-.622 1.071-1.05 1.926-1.285.666-.183 1.293-.191 1.881-.024a3.3 3.3 0 011.526.902l-.978 1.3c-.647-.558-1.308-.744-1.983-.558-.324.089-.569.238-.734.448a.773.773 0 00-.136.72c.062.225.185.39.369.494.19.093.508.175.953.246l1.135.167c.859.132 1.52.352 1.982.66.46.3.772.746.935 1.34.22.8.106 1.53-.343 2.185-.451.647-1.131 1.095-2.04 1.345a4.097 4.097 0 01-2.17.031 4.044 4.044 0 01-1.814-1.054zm17.898-9.142l-3.476 5.42-.197 3.636-1.887-.103.196-3.62-2.884-5.778 2.097.113 1.843 3.773 2.225-3.553 2.083.113zm6.343 12.268l3.926-6.428-2.52-1.54.89-1.457 6.666 4.072-.89 1.457-2.533-1.547-3.926 6.428-1.613-.985zm8.678.342c1.02-.831 2.206-1.161 3.554-.99 1.355.178 2.435.8 3.24 1.864.85 1.03 1.206 2.224 1.067 3.583-.133 1.366-.722 2.45-1.766 3.252-1.02.83-2.21 1.153-3.571.968-1.355-.178-2.435-.8-3.24-1.864-.85-1.03-1.206-2.224-1.067-3.583.145-1.352.74-2.429 1.783-3.23zm4.889 6.182c.688-.544 1.079-1.216 1.172-2.015.107-.798-.103-1.53-.63-2.197-.533-.673-1.196-1.053-1.99-1.14-.794-.086-1.538.146-2.234.696-.696.55-1.093 1.221-1.192 2.014-.1.792.117 1.525.65 2.198.526.667 1.187 1.043 1.98 1.13.8.093 1.548-.136 2.244-.686zM18.787 53.44l1.255 1.157c-.8.842-1.12 1.705-.958 2.59.077.423.23.738.456.945a.961.961 0 00.845.218c.27-.05.461-.169.575-.358.124-.192.253-.549.386-1.07l.275-1.108c.401-1.664 1.174-2.6 2.318-2.81.808-.147 1.512.032 2.111.539.61.505.997 1.214 1.164 2.127.13.712.081 1.367-.147 1.965-.22.597-.58 1.1-1.08 1.51l-1.268-1.14c.642-.624.896-1.297.764-2.018-.063-.346-.197-.615-.4-.806a.81.81 0 00-.74-.208.814.814 0 00-.548.339c-.115.19-.23.514-.344.972l-.279 1.169c-.216.884-.506 1.553-.87 2.007-.354.453-.849.737-1.484.853-.856.157-1.605-.03-2.248-.558-.634-.53-1.04-1.28-1.217-2.252-.146-.798-.09-1.554.167-2.267a4.236 4.236 0 011.267-1.796zm1.939 13.873l6.648-3.54-1.389-2.608 1.508-.802 3.672 6.895-1.508.803-1.395-2.62-6.648 3.54-.888-1.668zm8.924 11.421l.46-1.228-2.731-2.614-1.207.512L24.706 74l9.489-3.94.455.436-3.533 9.642-1.466-1.404zm1.059-2.805l1.269-3.108-3.05 1.404 1.78 1.704zm11.711 9.938l-1.94-.873-.846-3.957-1.265-.568-1.337 2.975-1.724-.775 3.789-8.427 3.167 1.423c.885.398 1.5.977 1.844 1.735.345.76.335 1.543-.028 2.351a2.916 2.916 0 01-1.039 1.253c-.443.302-.95.463-1.522.482l.901 4.38zm-2.282-9.33l-1.085 2.412 1.442.65c.4.179.761.208 1.082.086.33-.118.576-.36.74-.726.161-.357.172-.7.034-1.029-.13-.325-.387-.573-.77-.745l-1.443-.649zM47.9 86.69l.753-7.495-2.939-.295.171-1.7 7.773.782-.171 1.7-2.953-.297-.754 7.494-1.88-.19zm20.819-14.043l1.864-.967 1.049 10.054-.547.283-4.955-3.96.368 6.338-.547.283-7.61-6.651 1.864-.967 4.34 3.9-.44-6.11.56-.29 4.727 3.856-.673-5.77zm9.008 3.807l-6.743-6.316 1.292-1.38 6.743 6.317-1.292 1.379zm5.19-6.672l-6.555-3.71-1.455 2.57-1.486-.842 3.848-6.798 1.487.842-1.463 2.582 6.555 3.711-.931 1.645zm3.713-7.6l-9.095-1.627.332-1.86 3.487.624.72-4.024-3.487-.624.333-1.86 9.096 1.626-.333 1.86-3.928-.702-.72 4.024 3.928.703-.333 1.86z" fill="#42CCAD"/><defs><clipPath id="clip0"><path fill="#fff" transform="scale(-1 1) rotate(-5.837 346.016 672.414)" d="M0 0h27.07v27.07H0z"/></clipPath></defs></svg>
